Yaru++/actions/16/format-text-uppercase.svg

<svg viewBox="0 0 24 24" xmlns="http://www.w3.org/2000/svg"><path d="m5.828125 8-4.1738281 12h1.0078125l1.4960937-4h5.2070313l1.4902346 4h1.144531l-4.2304688-12zm7.171875 0v12h1 5a3.5 3.5 0 0 0 3.5-3.5 3.5 3.5 0 0 0 -2.433594-3.330078 3 3 0 0 0 .933594-2.169922 3 3 0 0 0 -3-3h-4zm1 1h4a2 2 0 0 1 2 2 2 2 0 0 1 -2 2h-4zm-7.2324219.0292969 2.2246094 5.9707031h-4.4589844zm7.2324219 4.9707031h5a2.5 2.5 0 0 1 2.5 2.5 2.5 2.5 0 0 1 -2.5 2.5h-5z" fill="#808080"/><path d="m17 3-3 4h6z" fill="#1d99f3"/></svg>

<svg xmlns="http://www.w3.org/2000/svg" viewBox="0 0 24 24">
 <defs>
  <style id="current-color-scheme" type="text/css">
   .ColorScheme-Text { color:#808080; } .ColorScheme-Highlight { color:#1d99f3; }
  </style>
 </defs>
 <path style="fill:currentColor" class="ColorScheme-Text" d="M 5.828125 8 L 1.6542969 20 L 2.6621094 20 L 4.1582031 16 L 9.3652344 16 L 10.855469 20 L 12 20 L 7.7695312 8 L 5.828125 8 z M 13 8 L 13 20 L 14 20 L 19 20 A 3.5 3.5 0 0 0 22.5 16.5 A 3.5 3.5 0 0 0 20.066406 13.169922 A 3 3 0 0 0 21 11 A 3 3 0 0 0 18 8 L 14 8 L 13 8 z M 14 9 L 18 9 A 2 2 0 0 1 20 11 A 2 2 0 0 1 18 13 L 14 13 L 14 9 z M 6.7675781 9.0292969 L 8.9921875 15 L 4.5332031 15 L 6.7675781 9.0292969 z M 14 14 L 19 14 A 2.5 2.5 0 0 1 21.5 16.5 A 2.5 2.5 0 0 1 19 19 L 14 19 L 14 14 z"/>
 <path style="fill:currentColor" class="ColorScheme-Highlight" d="M 17 3 L 14 7 L 20 7 L 17 3 z"/>
</svg>
